icons/svg/appearance_20.svg

<svg width="20" height="20" xmlns="http://www.w3.org/2000/svg"><path d="M15.5 19h-1.25v-3H17v1.5c0 .827-.673 1.5-1.5 1.5zM3 17.5V16h2.75v3H4.5c-.827 0-1.5-.673-1.5-1.5zm7.5 1.5h2.75v-3H10.5v3zm-3.75 0H9.5v-3H6.75v3zM4.5 10h2.646c.661 0 1.277-.326 1.647-.871a2.02 2.02 0 00.204-1.881C8.354 5.629 8 3.709 8 3c0-1.103.897-2 2-2s2 .897 2 2c0 .709-.354 2.629-.997 4.248a2.023 2.023 0 00.204 1.881c.37.545.986.871 1.647.871H15.5c.827 0 1.5.673 1.5 1.5V15H3v-3.5c0-.827.673-1.5 1.5-1.5zm11-1h-2.646c-.713 0-1.184-.72-.921-1.383C12.585 5.972 13 3.92 13 3a3 3 0 10-6 0c0 .92.415 2.972 1.067 4.617C8.33 8.28 7.859 9 7.146 9H4.5A2.5 2.5 0 002 11.5v6A2.5 2.5 0 004.5 20h11a2.5 2.5 0 002.5-2.5v-6A2.5 2.5 0 0015.5 9zM10 3.5a.5.5 0 100-1 .5.5 0 000 1" fill="#171B1F" fill-rule="evenodd"/></svg>

<?xml version="1.0" encoding="UTF-8"?>
<svg width="20px" height="20px" viewBox="0 0 20 20" version="1.1" xmlns="http://www.w3.org/2000/svg" xmlns:xlink="http://www.w3.org/1999/xlink">
    <!-- Generator: Sketch 59.1 (86144) - https://sketch.com -->
    <title>appearance_20</title>
    <desc>Created with Sketch.</desc>
    <g id="Symbols" stroke="none" stroke-width="1" fill="none" fill-rule="evenodd">
        <g id="settings/appearance_20" fill="#171B1F">
            <path d="M15.5,19 L14.25,19 L14.25,16 L17,16 L17,17.5 C17,18.327 16.327,19 15.5,19 L15.5,19 Z M3,17.5 L3,16 L5.75,16 L5.75,19 L4.5,19 C3.673,19 3,18.327 3,17.5 L3,17.5 Z M10.5,19 L13.25,19 L13.25,16 L10.5,16 L10.5,19 Z M6.75,19 L9.5,19 L9.5,16 L6.75,16 L6.75,19 Z M4.5,10 L7.146,10 C7.807,10 8.423,9.674 8.793,9.129 C9.169,8.576 9.244,7.873 8.997,7.248 C8.354,5.629 8,3.709 8,3 C8,1.897 8.897,1 10,1 C11.103,1 12,1.897 12,3 C12,3.709 11.646,5.629 11.003,7.248 C10.756,7.873 10.832,8.576 11.207,9.129 C11.577,9.674 12.193,10 12.854,10 L15.5,10 C16.327,10 17,10.673 17,11.5 L17,15 L3,15 L3,11.5 C3,10.673 3.673,10 4.5,10 L4.5,10 Z M15.5,9 L12.854,9 C12.141,9 11.67,8.28 11.933,7.617 C12.585,5.972 13,3.92 13,3 C13,1.343 11.657,0 10,0 C8.343,0 7,1.343 7,3 C7,3.92 7.415,5.972 8.067,7.617 C8.33,8.28 7.859,9 7.146,9 L4.5,9 C3.119,9 2,10.119 2,11.5 L2,17.5 C2,18.881 3.119,20 4.5,20 L15.5,20 C16.881,20 18,18.881 18,17.5 L18,11.5 C18,10.119 16.881,9 15.5,9 L15.5,9 Z M10,3.5 C10.276,3.5 10.5,3.276 10.5,3 C10.5,2.724 10.276,2.5 10,2.5 C9.724,2.5 9.5,2.724 9.5,3 C9.5,3.276 9.724,3.5 10,3.5" id="fill"></path>
        </g>
    </g>
</svg>
